X:1
T:James Gibb editions
T:Psalm 92.1 (Becker) - Schütz
%%score [ ( 1 2 ) ( 3 4 ) ]
L:1/8
Q:1/4=98
M:2/2
K:C
V:1 treble nm="Soprano Alto"
V:2 treble 
V:3 bass nm="Tenor Bass"
V:4 bass 
V:1
"^Cornelius Becker\n(1561-1604)""^Psalm 92,  version 1, SWV 190""^Heinrich Schütz\n(1585-1672)" G4 G2 G2 | %1
w: ~Es ist für-|
 A2 c2 (Bc) d2 | c2 A2 c2 d2 | e2 d2 f2 e2 |[M:2/2] d2 z d e>dcB | A2 z E ABcA | Bcdd cdec | %7
w: wahr ein köst\- * lich|Ding, wenn man dem|Her- ren dankt und|singt, zu Lob sein'm heil- gen|Nam'n, des Mor- gens Got- tes|Gnad wird kund, des Nachts man sei- ne|
 B2 A2 G8 |] %8
w: Wahr- heit rühmt.|
V:2
 D4 E2 E2 | F2 G2 G2 A2 | A2 F2 E2 G2 | G2 G2 A2 A2 |[M:2/2] ^F2 z G G>GEE | E2 z C CB,G,D | %6
w: ||||||
 DCA,E EGGA- | A G2 ^F G8 |] %8
w: * * * * * * sei- ne|* Wahr- heit rühmt.|
V:3
 B,4 B,2 C2 | C2 E2 D2 D2 | E2 D2 C2 B,2 | C3 B, (A, D2) ^C |[M:2/2] D2 z B, C>B,A,^G, | %5
 A,2 z A, E,G,E,^F, | %6
"^2. Auf zehen Saiten Psalterspiel, die Harfen gut ich brauchen will,\nsingen mit frohem Mut, die Werk des Herren weit bekannt\nrühmen die G'schäfte seiner Hand.\n\n3. Herr, wie sind deine Werk so groß, tief deine G'danken ohne Maß!\nEin Törichter glaubts nicht, der Narr, der gibt kein Achtung drauf ,\nin' Tag lebt hin der größte Hauf.\n\n4. Der Gottlos grünt wohl eine Zeit, gleichwie das Gras auf grüner Heid,\ner steht in voller Blüt, bis ihn vertilget mächtiglich\ndein Hand immer und ewglich.\n\n5. Du, Herr, der Höchste bist allein und wirst es auch wohl ewig sein,\nsieh an, Herr, deine Feind, die Feinde kommen um zur Stund,\ndie Übeltäter gehn zu Grund.\n\n7. Den G'rechten wird man fröhlich schaun recht günen wie ein Palmenbaum,\nwie Ced'rn auf Libanon, gepflanzet in dem Haus des Herrn,\nin sein Vorhöfen grünen werd'n." ^G,A,^F,G, A,B,CE | %7
 D2 D2 D8 |] %8
V:4
 G,4 E,2 C,2 | F,2 E,2 G,2 ^F,2 | A,2 D,2 A,2 G,2 | C2 G,2 D,2 A,2 |[M:2/2] D,2 z G, C,>G,,A,,E, | %5
 A,,2 z A,, A,,G,,C,D, | B,,A,,D,E, A,,G,,C,A,, | (B,,>C,) D,2 G,,8 |] %8

